src/Netnr.P/Netnr.ScriptService/wwwroot/icon/markdown.svg

<?xml version="1.0" standalone="no"?><!DOCTYPE svg PUBLIC "-//W3C//DTD SVG 1.1//EN" "http://www.w3.org/Graphics/SVG/1.1/DTD/svg11.dtd"><svg t="1566278804075" class="icon" viewBox="0 0 1638 1024" version="1.1" xmlns="http://www.w3.org/2000/svg" p-id="24979" xmlns:xlink="http://www.w3.org/1999/xlink" width="319.921875" height="200"><defs><style type="text/css"></style></defs><path d="M1520.274027 0H118.125973C52.975513 0 0 52.975513 0 118.125973v787.675584c0 65.15046 52.975513 118.125973 118.125973 118.125973h1402.148054c65.15046 0 118.125973-52.975513 118.125973-118.125973V118.125973c0-65.15046-52.975513-118.125973-118.125973-118.125973z m-598.674027 818.98259l-204.8 0.21741V512l-153.636235 196.900778-153.636235-196.900778v307.2H204.72753V204.8h204.8l153.636235 204.8 153.636235-204.8 204.8-0.21741v614.4z m305.750602 51.236235l-254.514367-358.218825h153.563765V204.8h204.8v307.2h153.563765l-257.485633 358.218825z" fill="" p-id="24980"></path></svg>

<svg viewBox="0 0 1638 1024" xmlns="http://www.w3.org/2000/svg" width="319.922" height="200"><path d="M1520.274 0H118.126C52.976 0 0 52.976 0 118.126v787.676c0 65.15 52.976 118.126 118.126 118.126h1402.148c65.15 0 118.126-52.976 118.126-118.126V118.126C1638.4 52.976 1585.424 0 1520.274 0zM921.6 818.983l-204.8.217V512L563.164 708.9 409.528 512v307.2h-204.8V204.8h204.8l153.636 204.8L716.8 204.8l204.8-.217v614.4zm305.75 51.236L972.837 512H1126.4V204.8h204.8V512h153.564l-257.486 358.219z"/></svg>
